X:1
T:D Major James P. Carrell, 1821
T:Issac Watts, 1717 (Psalm 117, Part 2)             88. 88. (L. M.)
T:Sharon
T:Transcribed from Songs of Zion, 1821
%%score [ 1 2 3 4 ]
L:1/8
M:4/4
K:D
V:1 treble nm="Tr." snm="Tr."
V:2 treble nm="C." snm="C."
V:3 treble-8 nm="T." snm="T."
V:4 bass nm="B." snm="B."
V:1
 d4 |[Q:1/4=150] B2 c2 d4 | f4 e2 e2 | d4 A4 | d2 c2 B4 | d4 e2 e2 | e8 | %7
 z4"^Let the Redeemer's name be sung" d4 | d2 d2 d4 | A4 F2 B2 | A4 d4 | e2 d2 f4 | (e2 d2) d2 c2 | %13
 d4 A4 | B2 A2 A4 | (d3 c) B2 e2 | d8 | z4 A4 | d2 e2 f4 | d4 c2 d2 | e4 A4 | B2 B2 B4 | d4 c2 B2 | %23
 A8 | z8 | z8 | z8 | z4 d4 | e2 d2 f4 | (e2 d2) c2 B2 | A8 | z4 B4 | A2 d2 B4 | e4 f2 d2 | d8 |] %35
V:2
"^From all   that  well below the skies  Let  the  Cre– a– tor's  praise  arise;                                                                              Through every land," D4 | %1
 D2 C2 D4 | D4 E2 E2 | F4 D4 | G2 E2 D4 | F4 E2 E2 | E8 | z4 D4 | F2 F2 F4 | F4 D2 D2 | D4 A4 | %11
 A2 B2 A4 | %12
"^by  every  tongue.  Through  every  land,  by    every  tongue.        E –ter –nal   are  thy mercies, Lord,  E–ter–nal  truth  attends  thy word;" (E2 F2) F2 E2 | %13
 F4 (E3 F) | G2 F2 E4 | D4 F2 A2 | D8 | z4 D4 | F2 G2 A4 | (F2 G2) A2 B2 | A4 A4 | F2 E2 D4 | %22
 (F2 G2) F2 E2 | E8 | %24
"^Till  suns  shall  rise  and  set  no  more.              Till   suns  shall  rise  and  set  no  more." z8 | %25
 z8 | z8 | z4 D4 | A2 F2 F4 | E4 F2 E2 | D8 | z4 G4 | E2 D2 F4 | E4 F2 D2 | D8 |] %35
V:3
 D4 | F2 E2 D4 | A4 E2 E2 | D4 A4 | d2 e2 f4 | d4 B2 e2 | A8 | z8 | z8 | z8 | z4 d4 | A2 BA F4 | %12
 (E2 D2) D2 E2 | F4 A4 | B2 d2 e4 | (d2 e2) f2 d2 | d8 | z4 A4 | B2 A2 F4 | (d2 B2) A2 F2 | A4 e4 | %21
 f2 e2 d4 | B4 d2 B2 | A8 | z4"^Thy praise shall sound from shore to shore," (A3 B) | d2 e2 f4 | %26
 d4 e2 d2 | B4 B4 | A2 B2 D4 | E4 D2 E2 | F8 | z4 d4 | A2 BA F4 | A4 B2 d2 | d8 |] %35
V:4
 D,4 | B,,2 A,,2 D,4 | D,4 A,2 A,2 | D,4 F,4 | G,2 E,2 F,4 | D,4 E,2 E,2 | A,,8 | z8 | z8 | z8 | %10
 z4 D,4 | A,,2 B,,2 D,4 | (E,2 F,2) D2 B,2 | F,4 (E,2 D,2) | D,2 F,2 E,4 | (A,3 F,) D,2 A,,2 | %16
 D,8 | z4 A,,4 | D,2 E,2 D,4 | F,4 E,2 D,2 | A,,4 A,,4 | B,,2 B,,2 D,4 | D,4 F,2 G,2 | A,8 | %24
 z4"^_____________________________________________________\nEdited by B. C. Johnston, 2017\nWhole piece moved from E major down to D major,  to avoid high notes in Bass and Treble." A,4 | %25
 B,2 B,2 A,4 | D4 G,2 F,2 | E,4 F,4 | A,2 B,2 A,4 | B,4 A,2 G,2 | F,8 | z4 D,4 | E,2 D,2 B,,4 | %33
 A,,4 B,,2 D,2 | D,8 |] %35

